src/mbxdull/icons/grocery-15.svg

<svg xmlns="http://www.w3.org/2000/svg" viewBox="0 0 21 21" height="21" width="21"><title>grocery-15.svg</title><rect fill="none" x="0" y="0" width="21" height="21"></rect><path fill="#ffffff" transform="translate(3 3)" d="M 13.199219 1.5 C 13.199219 1.5 11.808806 1.4588 11.253906 2 C 10.720406 2.5202 10.5 2.9177 10.5 4 L 1.1992188 4 L 2.59375 8.8144531 C 2.59725 8.8217531 2.6036219 8.8287375 2.6074219 8.8359375 C 2.8418219 9.4932375 3.4545469 9.9666406 4.1855469 9.9941406 C 4.1885469 9.9954406 4.1992187 10 4.1992188 10 L 10.699219 10 L 10.699219 10.199219 C 10.699219 10.199219 10.7 10.500391 10.5 10.900391 C 10.3 11.300391 10.200391 11.5 9.4003906 11.5 L 2.9003906 11.5 C 1.9003906 11.5 1.9003906 13 2.9003906 13 L 4.0996094 13 L 4.1992188 13 L 9.0996094 13 L 9.1992188 13 L 9.3007812 13 C 10.500781 13 11.399219 12.299609 11.699219 11.599609 C 11.999219 10.899609 12 10.300781 12 10.300781 L 12 10 L 12 4 C 12 3.4764 12.228619 3 12.699219 3 L 13.25 3 C 13.6642 3 14 2.6642 14 2.25 C 14 1.8358 13.6642 1.5 13.25 1.5 L 13.199219 1.5 z M 9.1992188 13 C 8.5992188 13 8.1992188 13.4 8.1992188 14 C 8.1992188 14.6 8.5992187 15 9.1992188 15 C 9.7992187 15 10.199219 14.6 10.199219 14 C 10.199219 13.4 9.7992188 13 9.1992188 13 z M 4.1992188 13 C 3.5992188 13 3.1992188 13.4 3.1992188 14 C 3.1992188 14.6 3.5992187 15 4.1992188 15 C 4.7992188 15 5.1992188 14.6 5.1992188 14 C 5.1992188 13.4 4.7992187 13 4.1992188 13 z " style="stroke-linejoin:round;stroke-miterlimit:4;" stroke="#ffffff" stroke-width="2"></path><path fill="#8a7862" transform="translate(3 3)" d="M 13.199219 1.5 C 13.199219 1.5 11.808806 1.4588 11.253906 2 C 10.720406 2.5202 10.5 2.9177 10.5 4 L 1.1992188 4 L 2.59375 8.8144531 C 2.59725 8.8217531 2.6036219 8.8287375 2.6074219 8.8359375 C 2.8418219 9.4932375 3.4545469 9.9666406 4.1855469 9.9941406 C 4.1885469 9.9954406 4.1992187 10 4.1992188 10 L 10.699219 10 L 10.699219 10.199219 C 10.699219 10.199219 10.7 10.500391 10.5 10.900391 C 10.3 11.300391 10.200391 11.5 9.4003906 11.5 L 2.9003906 11.5 C 1.9003906 11.5 1.9003906 13 2.9003906 13 L 4.0996094 13 L 4.1992188 13 L 9.0996094 13 L 9.1992188 13 L 9.3007812 13 C 10.500781 13 11.399219 12.299609 11.699219 11.599609 C 11.999219 10.899609 12 10.300781 12 10.300781 L 12 10 L 12 4 C 12 3.4764 12.228619 3 12.699219 3 L 13.25 3 C 13.6642 3 14 2.6642 14 2.25 C 14 1.8358 13.6642 1.5 13.25 1.5 L 13.199219 1.5 z M 9.1992188 13 C 8.5992188 13 8.1992188 13.4 8.1992188 14 C 8.1992188 14.6 8.5992187 15 9.1992188 15 C 9.7992187 15 10.199219 14.6 10.199219 14 C 10.199219 13.4 9.7992188 13 9.1992188 13 z M 4.1992188 13 C 3.5992188 13 3.1992188 13.4 3.1992188 14 C 3.1992188 14.6 3.5992187 15 4.1992188 15 C 4.7992188 15 5.1992188 14.6 5.1992188 14 C 5.1992188 13.4 4.7992187 13 4.1992188 13 z "></path></svg>

<svg xmlns="http://www.w3.org/2000/svg" viewBox="0 0 22 22" height="22" width="22"><title>grocery-15.svg</title><rect fill="none" x="0" y="0" width="22" height="22"></rect><path fill="#454545" transform="translate(3 3)" d="M3.2001,14c0,0.6,0.4,1,1,1s1-0.4,1-1s-0.4-1-1-1S3.2001,13.4,3.2001,14z" style="stroke-linejoin:round;stroke-miterlimit:4px;" stroke="#454545" stroke-width="3"></path><path fill="#454545" transform="translate(3 3)" d="M8.2001,14c0,0.6,0.4,1,1,1s1-0.4,1-1s-0.4-1-1-1S8.2001,13.4,8.2001,14z" style="stroke-linejoin:round;stroke-miterlimit:4px;" stroke="#454545" stroke-width="3"></path><path fill="#454545" transform="translate(3 3)" d="M13.25,1.5c-0.0178,0-0.05,0-0.05,0S11.8079,1.4588,11.253,2C10.7195,2.5202,10.5,2.9177,10.5,4H1.2001l1.3935,4.814
		C2.5971,8.8213,2.604,8.8279,2.6078,8.8351c0.2344,0.6573,0.8458,1.1308,1.5768,1.1583C4.1876,9.9947,4.2001,10,4.2001,10h6.5v0.2
		c0,0,0,0.3-0.2,0.7s-0.3,0.6-1.1,0.6H2.9c-1,0-1,1.5,0,1.5h1.2h0.1h4.9h0.1h0.1c1.2,0,2.1-0.7,2.4-1.4c0.3-0.7,0.3-1.3,0.3-1.3V10
		l0-6c0-0.5236,0.2294-1,0.7-1c0,0,0.5323,0,0.55,0C13.6642,3,14,2.6642,14,2.25S13.6642,1.5,13.25,1.5z" style="stroke-linejoin:round;stroke-miterlimit:4px;" stroke="#454545" stroke-width="3"></path><path fill="#d9d9d9" transform="translate(3 3)" d="M3.2001,14c0,0.6,0.4,1,1,1s1-0.4,1-1s-0.4-1-1-1S3.2001,13.4,3.2001,14z"></path><path fill="#d9d9d9" transform="translate(3 3)" d="M8.2001,14c0,0.6,0.4,1,1,1s1-0.4,1-1s-0.4-1-1-1S8.2001,13.4,8.2001,14z"></path><path fill="#d9d9d9" transform="translate(3 3)" d="M13.25,1.5c-0.0178,0-0.05,0-0.05,0S11.8079,1.4588,11.253,2C10.7195,2.5202,10.5,2.9177,10.5,4H1.2001l1.3935,4.814
		C2.5971,8.8213,2.604,8.8279,2.6078,8.8351c0.2344,0.6573,0.8458,1.1308,1.5768,1.1583C4.1876,9.9947,4.2001,10,4.2001,10h6.5v0.2
		c0,0,0,0.3-0.2,0.7s-0.3,0.6-1.1,0.6H2.9c-1,0-1,1.5,0,1.5h1.2h0.1h4.9h0.1h0.1c1.2,0,2.1-0.7,2.4-1.4c0.3-0.7,0.3-1.3,0.3-1.3V10
		l0-6c0-0.5236,0.2294-1,0.7-1c0,0,0.5323,0,0.55,0C13.6642,3,14,2.6642,14,2.25S13.6642,1.5,13.25,1.5z"></path></svg>
